X:1
T:Title
%%score { 1 | 2 }
L:1/8
M:6/4
K:F
V:1 treble nm="Grand Piano"
V:2 bass 
V:1
 z6 z4[Q:1/4=100] [DF][DF] | [DF]2 [B,D]2 [^CG]2 [DF]4 [DF][DF] | %2
 [DF]2 [B,D]2 [^CG]2 [DF]4 [DF][DF] | A2 G2 F2 A2 G2 F2 | [DB]6- [DB]4 [DB][DB] | %5
 B2 G2 B2 [DF]4 [DB][DB] |[M:5/4] B2 G2 B2 [B,DF]4 |[M:1/4] [DFB][DFB] | %8
[M:6/4] [CFA]2 [=B,F_A]2 [CF=A]2 [DEB]2 [CEA]2 [B,EG]2 |[M:5/4] [A,F]2- [A,F]2- [A,F]6 | %10
[M:1/4] [A,F][A,F] |[M:6/4] [A_e]4 [Ae][Ae] [Ae]2 [Ad]2 [Ac]2 | B2 A2 G2 F4 [DF][DF] | %13
 G4 GG [Ed]2 [Ec]2 [EG]2 | [_Ec]6- [Ec]4 [DF][DF] | [Fd]2 [E^c]2 [Fd]2 [DB]4 [DFB][DFB] | %16
 [GB]2 [^FA]2 [GB]2 G4 GG[Q:1/4=99][Q:1/4=97][Q:1/4=96][Q:1/4=94][Q:1/4=93][Q:1/4=91][Q:1/4=90][Q:1/4=88][Q:1/4=87][Q:1/4=85] | %17
 F4 FF F2 F2 F2[Q:1/4=84][Q:1/4=82][Q:1/4=81][Q:1/4=79][Q:1/4=78][Q:1/4=76] | %18
[M:5/4] [DF]2- [DF]2- [DF]6 |] %19
V:2
 z6 z4 [B,,B,][B,,B,] | [B,,B,]2 [B,,F,]2 [B,,E,]2 [B,,F,]4 [B,,B,][B,,B,] | %2
 [B,,B,]2 [B,,F,]2 [B,,E,]2 [B,,F,]4 [B,,B,][B,,B,] | %3
 [F,C_E]2 [F,B,E]2 [F,A,E]2 [F,CE]2 [F,B,E]2 [F,A,E]2 | [B,,B,]6- [B,,B,]4 [B,,_A,][B,,A,] | %5
 [_E,G,_E]2 [E,B,E]2 [E,G,E]2 [B,,B,]4 [B,,_A,][B,,A,] |[M:5/4] [_E,G,_E]2 [E,B,E]2 [E,G,E]2 B,,4 | %7
[M:1/4] B,,B,, |[M:6/4] C,2 C,2 C,2 C,2 C,2 C,2 |[M:5/4] F,2- F,2- F,6 |[M:1/4] F,F, | %11
[M:6/4] [F,C]4 [F,C][F,C] [F,C]2 [F,F]2 [F,_E]2 | %12
 [B,DF]2 [B,DF]2[K:bass] [B,_E]2 [B,D]4 [B,,B,][B,,B,] | %13
 [_E,B,_E]4 [E,B,E][E,B,E] [C,B,]2 [C,G,]2 [C,B,]2 | [F,A,]6- [F,A,]4 [B,,B,][B,,B,] | %15
 [B,,B,]2 [B,,B,]2 [B,,B,]2 [B,,B,]4 B,,B,, | [_E,_E]2 [E,E]2 [E,E]2 [E,B,E]4 [E,B,E][E,B,E] | %17
 [F,B,D]4 [F,B,D][F,B,D] [F,A,C]2 [F,B,D]2 [F,C_E]2 |[M:5/4] [B,,B,]2- [B,,B,]2- [B,,B,]6 |] %19

